outputs/icons/editor/indent_increase_sharp.svg

<svg xmlns="http://www.w3.org/2000/svg" width="1200" height="1200" fill="none"><g clip-path="url(#a)"><path fill="#000" d="M150 1050h900V950H150zm0-650v400l200-200zm400 450h500V750H550zM150 150v100h900V150zm400 300h500V350H550zm0 200h500V550H550z"/></g><defs><clipPath id="a"><path fill="#fff" d="M0 0h1200v1200H0z"/></clipPath></defs></svg>

<svg width="1200" height="1200" viewBox="0 0 1200 1200" fill="none" xmlns="http://www.w3.org/2000/svg"><g clip-path="url(#clip0_238_3212)"><path d="M150 1050H1050V950H150V1050ZM150 400V800L350 600L150 400ZM550 850H1050V750H550V850ZM150 150V250H1050V150H150ZM550 450H1050V350H550V450ZM550 650H1050V550H550V650Z" fill="black"/></g><defs><clipPath id="clip0_238_3212"><path width="24" fill="white" d="M0 0H1200V1200H0V0z"/></clipPath></defs></svg>
